;FLAVOR:RepRap
;TIME:2847
;Filament used: 3.91422m, 0m
;Layer height: 0.2
;MINX:159.889
;MINY:173.879
;MINZ:0.3
;MAXX:219.782
;MAXY:205.306
;MAXZ:47.9
;TARGET_MACHINE.NAME:Promega

;POSTPROCESSED
;  [ColorMixRRFAdvanced]
;Exported with Cura-DuetRRF v1.2.11 plugin by Thomas Kriechbaumer
;Generated with Cura_SteamEngine 5.10.1
; = RRF Start G-code for OrcaSlicer =
M564 H0 S0		; Allow movement before homing
M190 S0	; Wait for bed temp
M109 S0		; Wait for hotend temp
M106 S2 S255	; Turn on part cooling fan

G28		; Home all axes
G1 Z5 F6000 	; Raise nozzle
G1 X5 Y5 F6000 	; Move to front corner
G92 E0 		; Reset extruder
G1 F300 E3  	; Prime
G92 E0 		; Reset again
G29 S1 		; Load bed mesh compensation
T0
M190 S70
M104 S240
M109 S240
M82 ;absolute extrusion mode
M83 ;relative extrusion mode
G1 F1500 E-0.5
;LAYER_COUNT:239

;LAYER:0
M567 P0 E1.00:0.00
M107
M107 P1
M107 P2
M204 T5000
M566 X1800 Y1800
G0 F3000 X161.487 Y180.835 Z0.3
M204 P3500
M566 X1200 Y1200
;TYPE:SKIRT
G1 F1500 E0.5
G1 F3000 X162.063 Y180.345 E0.03773
G1 X162.523 Y180.013 E0.0283
G1 X163.193 Y179.618 E0.0388
G1 X164.385 Y179.244 E0.06233
G1 X165.084 Y179.121 E0.03541
G1 X165.84 Y179.061 E0.03784
G1 X188.431 Y177.604 E1.12941
G1 X189.54 Y177.553 E0.05539
G1 X190.348 Y177.549 E0.04031
G1 X191.575 Y177.601 E0.06127
G1 X193.066 Y177.784 E0.07494
G1 X194.23 Y178.002 E0.05908
G1 X195.536 Y178.339 E0.06729
G1 X196.226 Y178.551 E0.03601
G1 X197.062 Y178.846 E0.04423
G1 X198.106 Y179.273 E0.05627
G1 X199.074 Y179.759 E0.05404
G1 X200.246 Y180.404 E0.06674
G1 X201.218 Y181.045 E0.05809
G1 X201.694 Y181.391 E0.02936
G1 X202.759 Y182.229 E0.06761
G1 X203.167 Y182.592 E0.02725
G1 X203.94 Y183.332 E0.05339
G1 X204.652 Y184.074 E0.0513
G1 X205.061 Y184.554 E0.03146
G1 X205.725 Y185.392 E0.05334
G1 X206.097 Y185.895 E0.03121
G1 X206.659 Y186.727 E0.05009
G1 X207.038 Y187.385 E0.03788
G1 X207.464 Y188.376 E0.05382
G1 X207.634 Y189.052 E0.03478
G1 X207.708 Y189.673 E0.0312
G1 X207.724 Y190.399 E0.03623
G1 X207.534 Y191.364 E0.04907
G1 X207.261 Y192.21 E0.04435
G1 X206.795 Y193.044 E0.04766
G1 X206.169 Y193.998 E0.05693
G1 X205.748 Y194.584 E0.036
G1 X205.114 Y195.385 E0.05097
G1 X204.64 Y195.924 E0.03581
G1 X203.665 Y196.954 E0.07076
G1 X202.666 Y197.847 E0.06685
G1 X201.732 Y198.588 E0.05948
G1 X201.078 Y199.062 E0.0403
G1 X200.125 Y199.656 E0.05602
G1 X198.823 Y200.377 E0.07425
G1 X198.252 Y200.656 E0.03171
G1 X197.225 Y201.086 E0.05555
G1 X196.024 Y201.515 E0.06363
G1 X194.822 Y201.864 E0.06244
G1 X193.636 Y202.123 E0.06056
G1 X192.365 Y202.316 E0.06414
G1 X191.412 Y202.409 E0.04777
G1 X190.35 Y202.451 E0.05302
G1 X189.421 Y202.443 E0.04635
G1 X188.175 Y202.38 E0.06224
G1 X165.772 Y200.934 E1.12002
G1 X164.692 Y200.835 E0.05411
G1 X163.85 Y200.614 E0.04343
G1 X163.044 Y200.293 E0.04328
G1 X162.183 Y199.762 E0.05047
G1 X161.478 Y199.155 E0.04641
G1 X160.966 Y198.497 E0.0416
G1 X160.588 Y197.943 E0.03346
G1 X160.238 Y197.078 E0.04655
G1 X160.008 Y196.192 E0.04567
G1 X159.913 Y195.453 E0.03717
G1 X159.889 Y194.156 E0.06472
G1 X159.893 Y185.374 E0.43814
G1 X159.915 Y184.362 E0.0505
G1 X160.045 Y183.58 E0.03955
G1 X160.232 Y182.937 E0.03341
G1 X160.505 Y182.281 E0.03545
G1 X160.885 Y181.614 E0.0383
G1 X161.487 Y180.835 E0.04912
M566 X1800 Y1800
G0 X161.777 Y181.114
M566 X1200 Y1200
G1 X162.298 Y180.669 E0.03418
G1 X162.726 Y180.358 E0.02639
G1 X163.359 Y179.985 E0.03666
G1 X164.455 Y179.638 E0.05735
G1 X165.116 Y179.52 E0.0335
G1 X165.866 Y179.46 E0.03754
G1 X188.45 Y178.004 E1.12906
G1 X189.542 Y177.953 E0.05454
G1 X190.331 Y177.949 E0.03936
G1 X191.558 Y178.001 E0.06127
G1 X193.017 Y178.181 E0.07334
G1 X194.13 Y178.389 E0.05649
G1 X195.419 Y178.721 E0.06641
G1 X196.093 Y178.928 E0.03518
G1 X196.911 Y179.216 E0.04327
G1 X197.927 Y179.631 E0.05475
G1 X198.882 Y180.11 E0.0533
G1 X200.026 Y180.738 E0.06511
G1 X200.983 Y181.369 E0.05719
G1 X201.459 Y181.715 E0.02936
G1 X202.493 Y182.528 E0.06562
G1 X202.89 Y182.881 E0.0265
G1 X203.663 Y183.621 E0.05339
G1 X204.348 Y184.334 E0.04933
G1 X204.747 Y184.802 E0.03068
G1 X205.403 Y185.63 E0.0527
G1 X205.775 Y186.133 E0.03121
G1 X206.312 Y186.927 E0.04782
G1 X206.691 Y187.585 E0.03788
G1 X207.076 Y188.474 E0.04833
G1 X207.246 Y189.15 E0.03478
G1 X207.308 Y189.682 E0.02672
G1 X207.323 Y190.364 E0.03403
G1 X207.153 Y191.241 E0.04457
G1 X206.891 Y192.052 E0.04252
G1 X206.46 Y192.825 E0.04415
G1 X205.844 Y193.765 E0.05607
G1 X205.434 Y194.336 E0.03507
G1 X204.8 Y195.137 E0.05097
G1 X204.349 Y195.649 E0.03404
G1 X203.398 Y196.656 E0.0691
G1 X202.417 Y197.534 E0.06568
G1 X201.497 Y198.264 E0.05859
G1 X200.843 Y198.738 E0.0403
G1 X199.931 Y199.306 E0.0536
G1 X198.647 Y200.018 E0.07325
G1 X198.097 Y200.287 E0.03055
G1 X197.09 Y200.709 E0.05447
G1 X195.889 Y201.138 E0.06363
G1 X194.737 Y201.473 E0.05985
G1 X193.551 Y201.732 E0.06056
G1 X192.326 Y201.918 E0.06182
G1 X191.396 Y202.009 E0.04662
G1 X190.354 Y202.051 E0.05203
G1 X189.441 Y202.043 E0.04555
G1 X188.201 Y201.981 E0.06194
G1 X165.806 Y200.535 E1.11962
G1 X164.794 Y200.448 E0.05068
G1 X163.952 Y200.227 E0.04343
G1 X163.252 Y199.952 E0.03752
G1 X162.444 Y199.459 E0.04722
G1 X161.771 Y198.88 E0.04429
G1 X161.282 Y198.251 E0.03975
G1 X160.943 Y197.753 E0.03006
G1 X160.609 Y196.928 E0.0444
G1 X160.405 Y196.139 E0.04066
G1 X160.313 Y195.446 E0.03488
G1 X160.289 Y194.156 E0.06437
G1 X160.293 Y185.381 E0.43779
G1 X160.31 Y184.428 E0.04755
G1 X160.44 Y183.646 E0.03955
G1 X160.602 Y183.089 E0.02894
G1 X160.853 Y182.479 E0.03291
G1 X161.233 Y181.812 E0.0383
G1 X161.777 Y181.114 E0.04415
M566 X1800 Y1800
G0 X162.069 Y181.39
M566 X1200 Y1200
G1 X162.533 Y180.993 E0.03047
G1 X162.961 Y180.682 E0.02639
G1 X163.522 Y180.353 E0.03245
G1 X164.526 Y180.032 E0.05259
G1 X165.148 Y179.919 E0.03154
G1 X165.892 Y179.859 E0.03724
G1 X188.469 Y178.404 E1.12871
G1 X189.544 Y178.353 E0.05369
G1 X190.314 Y178.349 E0.03842
G1 X191.541 Y178.401 E0.06127
G1 X192.968 Y178.578 E0.07174
G1 X194.03 Y178.776 E0.0539
G1 X195.302 Y179.103 E0.06552
G1 X195.96 Y179.305 E0.03434
G1 X196.76 Y179.586 E0.0423
G1 X197.748 Y179.989 E0.05323
G1 X198.69 Y180.461 E0.05257
G1 X199.806 Y181.072 E0.06348
G1 X200.748 Y181.693 E0.05629
G1 X201.212 Y182.03 E0.02861
G1 X202.227 Y182.827 E0.06438
G1 X202.613 Y183.17 E0.02576
G1 X203.386 Y183.91 E0.05339
G1 X204.044 Y184.594 E0.04735
G1 X204.434 Y185.051 E0.02997
G1 X205.082 Y185.868 E0.05202
G1 X205.444 Y186.357 E0.03035
G1 X205.965 Y187.127 E0.04638
G1 X206.344 Y187.785 E0.03788
G1 X206.689 Y188.573 E0.04292
G1 X206.849 Y189.197 E0.03214
G1 X206.908 Y189.691 E0.02482
G1 X206.922 Y190.329 E0.03184
G1 X206.76 Y191.165 E0.04248
G1 X206.523 Y191.889 E0.03801
G1 X206.125 Y192.606 E0.04091
G1 X205.519 Y193.532 E0.05521
G1 X205.12 Y194.088 E0.03414
G1 X204.499 Y194.873 E0.04994
G1 X204.058 Y195.375 E0.03334
G1 X203.131 Y196.358 E0.06741
G1 X202.15 Y197.236 E0.06568
G1 X201.262 Y197.94 E0.05654
G1 X200.608 Y198.414 E0.0403
G1 X199.737 Y198.956 E0.05118
G1 X198.471 Y199.659 E0.07225
G1 X197.942 Y199.918 E0.02939
G1 X196.955 Y200.332 E0.0534
G1 X195.754 Y200.761 E0.06363
G1 X194.652 Y201.082 E0.05726
G1 X193.466 Y201.341 E0.06056
G1 X192.287 Y201.52 E0.05949
G1 X191.38 Y201.609 E0.04547
G1 X190.357 Y201.651 E0.05108
G1 X189.461 Y201.644 E0.0447
G1 X188.227 Y201.582 E0.06164
G1 X165.84 Y200.136 E1.11922
G1 X164.828 Y200.049 E0.05068
G1 X164.095 Y199.853 E0.03785
G1 X163.458 Y199.609 E0.03403
G1 X162.705 Y199.156 E0.04384
G1 X162.062 Y198.603 E0.04231
G1 X161.598 Y198.006 E0.03772
G1 X161.299 Y197.565 E0.02658
G1 X160.98 Y196.778 E0.04237
G1 X160.801 Y196.085 E0.03571
G1 X160.713 Y195.439 E0.03253
G1 X160.689 Y194.156 E0.06402
G1 X160.693 Y185.386 E0.43754
G1 X160.705 Y184.494 E0.04451
G1 X160.835 Y183.712 E0.03955
G1 X160.973 Y183.239 E0.02458
G1 X161.202 Y182.675 E0.03037
G1 X161.549 Y182.058 E0.03532
G1 X162.069 Y181.39 E0.04223
M566 X1800 Y1800
G1 F1500 E-0.5
;MESH:3DBenchy.stl
G0 F3000 X182.547 Y188.48
G0 X183.681 Y190.353
G0 X183.985 Y190.391
M566 X1200 Y1200
;TYPE:WALL-INNER
G1 F1500 E0.5
G1 F3000 X184.018 Y189.963 E0.02142
G1 X183.971 Y189.403 E0.02804
G1 X183.86 Y189.025 E0.01965
G1 X183.686 Y188.781 E0.01495
G1 X183.564 Y188.715 E0.00692
G1 X182.721 Y188.617 E0.04234
G1 X182.725 Y191.279 E0.13281
G1 X183.127 Y191.269 E0.02006
G1 X183.568 Y191.185 E0.0224
G1 X183.769 Y191.014 E0.01317
G1 X183.87 Y190.828 E0.01056
G1 X183.985 Y190.391 E0.02254
M566 X1800 Y1800
G0 X183.681 Y190.353
G0 X183.096 Y190.963
G0 X183.17 Y191.668
M566 X1200 Y1200
;TYPE:WALL-OUTER
G1 X183.709 Y191.565 E0.02738
G1 X183.91 Y191.449 E0.01158
G1 X184.096 Y191.25 E0.01359
G1 X184.244 Y190.977 E0.01549
G1 X184.381 Y190.458 E0.02678
G1 X184.419 Y189.961 E0.02487
G1 X184.366 Y189.329 E0.03164
G1 X184.23 Y188.867 E0.02403
G1 X184.091 Y188.622 E0.01405
G1 X183.93 Y188.458 E0.01147
G1 X183.686 Y188.327 E0.01382
G1 X182.814 Y188.226 E0.0438
G1 X182.347 Y188.274 E0.02342
G1 X182.32 Y188.308 E0.00217
G1 X182.329 Y191.555 E0.16199
G1 X182.401 Y191.687 E0.0075
G1 X183.17 Y191.668 E0.03838
M566 X1800 Y1800
G0 X183.366 Y191.631
G0 X183.232 Y190.936
G0 X183.603 Y189.964
M566 X1200 Y1200
;TYPE:SKIN
G1 F2620.1 X183.58 Y190.322 E0.02049
G1 F2654.9 X183.492 Y190.659 E0.01964
G1 X183.384 Y190.8 E0.01001
G1 X183.134 Y190.835 E0.01423
G1 F2666.7 X183.126 Y189.071 E0.09901
G1 F2678.6 X183.436 Y189.115 E0.0175
G1 X183.571 Y189.481 E0.0218
G1 F2631.6 X183.603 Y189.964 E0.02753
M566 X1800 Y1800
G0 F3000 X183.408 Y189.949
G1 F1500 E-0.5
G0 F3000 X182.537 Y189.866
G0 X180.714 Y189.868
G0 X180.392 Y190.78
M566 X1200 Y1200
;TYPE:WALL-INNER
G1 F1500 E0.5
G1 F1877.9 X180.416 Y191.319 E0.043
G1 X180.393 Y191.713 E0.03146
M566 X1800 Y1800
G0 F3000 X180.289 Y192.402
G0 X180.693 Y187.138
G0 X181.313 Y186.633
G0 X182.311 Y186.602
G0 X183.375 Y186.611
G0 X184.103 Y186.743
G0 X187.777 Y189.159
G0 X188.081 Y189.068
M566 X1200 Y1200
G1 X188.098 Y188.652 E0.02077
G1 X188.159 Y188.463 E0.00991
G1 X188.378 Y188.169 E0.01829
G1 X188.672 Y187.979 E0.01746
G1 X189.103 Y187.881 E0.02205
G1 X189.615 Y187.989 E0.02611
G1 X190.05 Y188.381 E0.02921
G1 X190.176 Y188.549 E0.01048
G1 X190.559 Y188.139 E0.02799
G1 X190.973 Y187.921 E0.02334
G1 X191.164 Y187.88 E0.00975
G1 X191.544 Y187.935 E0.01916
G1 X191.98 Y188.249 E0.02681
G1 X192.165 Y188.616 E0.0205
G1 X192.322 Y188.237 E0.02047
G1 X192.719 Y187.947 E0.02453
G1 X193.307 Y187.899 E0.02943
G1 X193.748 Y188.054 E0.02332
G1 X194.077 Y188.347 E0.02198
G1 X194.264 Y188.709 E0.02033
G1 X194.422 Y189.274 E0.02927
G1 X194.535 Y189.558 E0.01525
G1 X194.805 Y188.8 E0.04014
G1 X194.97 Y188.479 E0.01801
G1 X195.379 Y188.034 E0.03015
G1 X195.66 Y187.91 E0.01532
G1 X196.084 Y187.906 E0.02115
G1 X196.459 Y188.094 E0.02093
G1 X196.77 Y188.463 E0.02408
G1 X196.933 Y188.209 E0.01506
G1 X197.328 Y187.966 E0.02314
G1 X197.868 Y187.879 E0.02729
G1 X200.064 Y187.885 E0.10956
G1 F2758.6 X200.537 Y187.985 E0.02623
G1 F2419.4 X200.691 Y188.055 E0.01047
G1 F2298.9 X201.013 Y188.472 E0.0343
G1 F2603 X201.051 Y188.973 E0.02889
G1 F3000 X201.015 Y189.371 E0.01994
G1 X200.804 Y189.88 E0.02749
G1 X199.678 Y191.475 E0.09741
G1 X200.126 Y191.518 E0.02245
G1 X200.453 Y191.602 E0.01684
G1 X200.75 Y191.757 E0.01671
G1 X200.941 Y191.962 E0.01398
G1 X201.059 Y192.171 E0.01197
G1 X201.104 Y192.354 E0.0094
G1 X201.776 Y191.47 E0.0554
G1 X202.425 Y190.472 E0.05939
G1 X202.574 Y190.045 E0.02256
G1 X202.517 Y189.698 E0.01754
G1 X202.197 Y189.166 E0.03097
G1 X201.779 Y188.534 E0.0378
G1 F2603 X201.46 Y188.207 E0.02627
G1 F2298.9 X201.038 Y187.676 E0.04416
G1 F2603 X200.659 Y187.141 E0.0377
G1 F3000 X200.079 Y186.544 E0.04153
G1 X199.549 Y186.045 E0.03632
G1 X198.735 Y185.389 E0.05216
G1 X198.029 Y184.879 E0.04345
G1 X197.41 Y184.494 E0.03637
G1 X196.685 Y184.081 E0.04163
G1 X195.814 Y183.665 E0.04816
G1 X194.994 Y183.34 E0.04401
G1 X194.316 Y183.113 E0.03567
G1 X193.53 Y182.883 E0.04086
G1 X192.681 Y182.706 E0.04327
G1 X191.991 Y182.591 E0.0349
G1 X191.262 Y182.507 E0.03661
G1 X190.494 Y182.468 E0.03837
G1 X189.958 Y182.465 E0.02674
G1 X189.448 Y182.478 E0.02545
G1 X165.668 Y183.927 E1.18859
G1 X165.255 Y184.077 E0.02192
G1 X164.998 Y184.289 E0.01662
G1 X164.876 Y184.453 E0.0102
G1 X164.75 Y184.765 E0.01679
G1 X164.7 Y185.154 E0.01957
G1 X164.699 Y188.346 E0.15925
G1 X164.824 Y187.988 E0.01892
G1 X165.192 Y187.403 E0.03448
G1 X165.63 Y186.937 E0.03191
G1 X166.269 Y186.55 E0.03727
G1 X166.756 Y186.372 E0.02587
G1 X167.499 Y186.272 E0.0374
G1 X168.15 Y186.303 E0.03252
G1 X168.804 Y186.492 E0.03396
G1 X169.247 Y186.753 E0.02565
G1 X169.685 Y187.16 E0.02983
G1 X169.81 Y187.387 E0.01293
G1 X169.891 Y187.049 E0.01734
G1 X170.068 Y186.769 E0.01653
G1 X170.392 Y186.522 E0.02033
G1 X170.779 Y186.417 E0.02001
G1 X171.493 Y186.455 E0.03567
G1 X172.112 Y186.444 E0.03089
G1 X174.848 Y186.444 E0.1365
G1 X175.107 Y186.502 E0.01324
G1 X175.485 Y186.746 E0.02245
G1 X175.689 Y187.09 E0.01995
G1 X175.711 Y187.204 E0.00579
G1 X175.996 Y186.849 E0.02271
G1 X176.354 Y186.593 E0.02196
G1 X176.768 Y186.418 E0.02242
G1 X177.355 Y186.285 E0.03003
G1 X178.048 Y186.28 E0.03457
G1 X178.519 Y186.345 E0.02372
G1 X179.027 Y186.521 E0.02682
G1 X179.452 Y186.788 E0.02504
G1 X179.744 Y187.11 E0.02169
G1 F2816.9 X180.037 Y187.695 E0.03476
G1 F2727.3 X180.08 Y188.294 E0.03296
G1 F2690.6 X180.016 Y188.997 E0.03927
G1 F2334.6 X179.887 Y189.369 E0.02524
G1 F2127.7 X179.802 Y189.472 E0.00939
G1 X180.091 Y189.922 E0.03762
G1 F1957.6 X180.392 Y190.78 E0.06952
G1 F1863.4 X180.41 Y190.639 E0.01142
G1 F2013.4 X180.44 Y189.998 E0.0477
G1 F2127.7 X180.439 Y189.461 E0.03778
G1 F2325.6 X180.488 Y188.944 E0.03342
G1 F2614.4 X180.52 Y188.004 E0.05385
G1 F2678.6 X180.471 Y187.557 E0.02513
G1 F2836.9 X180.593 Y187.017 E0.02921
G1 F3000 X180.849 Y186.703 E0.02021
G1 X181.308 Y186.48 E0.02546
G1 X181.655 Y186.433 E0.01747
G1 X183.387 Y186.461 E0.08642
G1 X184.144 Y186.595 E0.03835
G1 X184.683 Y186.806 E0.02888
G1 X185.095 Y187.082 E0.02474
G1 X185.359 Y187.333 E0.01817
G1 X185.642 Y187.705 E0.02332
G1 X185.914 Y188.211 E0.02866
G1 X186.111 Y188.854 E0.03355
G1 X186.21 Y189.576 E0.03636
G1 X186.205 Y190.487 E0.04545
G1 X186.124 Y190.907 E0.02134
G1 X186.536 Y190.78 E0.02151
G1 X187.062 Y190.792 E0.02625
G1 X187.606 Y191.01 E0.02924
G1 X187.802 Y191.149 E0.01199
G1 X188.046 Y191.409 E0.01779
G1 X188.263 Y191.857 E0.02483
G1 X188.745 Y191.029 E0.0478
G1 X188.929 Y190.772 E0.01577
G1 X188.201 Y189.499 E0.07316
G1 X188.081 Y189.068 E0.02232
M566 X1800 Y1800
G0 X187.777 Y189.159
G0 X188.313 Y192.075
G0 X188.167 Y192.903
G0 X192.451 Y196.48
G0 X192.559 Y196.188
M566 X1200 Y1200
G1 X192.172 Y196.019 E0.02107
G1 X191.868 Y195.682 E0.02264
G1 X191.695 Y195.184 E0.0263
G1 X191.741 Y194.685 E0.025
G1 F2419.4 X192.058 Y194.171 E0.03736
G1 F2040.8 X192.171 Y194.107 E0.00952
G1 F2434.1 X192.771 Y194.011 E0.03736
G1 F3000 X192.976 Y193.858 E0.01276
G1 X193.206 Y193.24 E0.0329
G1 X193.455 Y192.721 E0.02872
G1 X193.207 Y192.154 E0.03088
G1 X192.494 Y190.246 E0.10162
G1 X192.142 Y189.38 E0.04664
G1 X191.68 Y190.182 E0.04618
G1 X191.405 Y190.636 E0.02648
G1 X191.392 Y190.721 E0.00429
G1 X191.854 Y191.548 E0.04726
G1 X192.168 Y192.059 E0.02992
G1 X192.278 Y192.456 E0.02055
G1 X192.261 Y192.922 E0.02326
G1 X192.192 Y193.102 E0.00962
G1 F2434.1 X191.882 Y193.599 E0.03602
G1 F2040.8 X191.802 Y193.641 E0.00663
G1 F2419.4 X191.35 Y193.689 E0.02812
G1 F3000 X190.959 Y193.671 E0.01953
G1 X190.668 Y193.548 E0.01576
G1 X190.283 Y193.151 E0.02759
G1 X190.111 Y192.851 E0.01725
G1 X189.935 Y193.137 E0.01675
G1 X189.605 Y193.476 E0.0236
G1 X189.432 Y193.591 E0.01036
G1 X189.019 Y193.68 E0.02108
G1 X188.608 Y193.584 E0.02106
G1 X188.244 Y193.319 E0.02246
G1 X188.156 Y193.184 E0.00804
G1 X187.744 Y193.634 E0.03044
G1 X187.419 Y193.824 E0.01878
G1 X186.856 Y193.957 E0.02886
G1 X186.306 Y193.894 E0.02762
G1 X185.919 Y193.719 E0.02119
G1 X185.644 Y193.506 E0.01735
G1 X185.383 Y193.17 E0.02123
G1 X185.215 Y192.688 E0.02547
G1 X184.817 Y193.013 E0.02564
G1 X184.491 Y193.192 E0.01855
G1 X183.836 Y193.417 E0.03455
G1 X182.961 Y193.483 E0.04378
G1 X182.032 Y193.477 E0.04635
G1 X181.32 Y193.506 E0.03555
G1 X180.954 Y193.328 E0.0203
