;FLAVOR:RepRap
;TIME:3426
;Filament used: 6.69519m, 0m
;Layer height: 0.2
;MINX:147.365
;MINY:149.061
;MINZ:0.3
;MAXX:232.65
;MAXY:230.982
;MAXZ:11.9
;TARGET_MACHINE.NAME:Promega
;Exported with Cura-DuetRRF v1.2.11 plugin by Thomas Kriechbaumer
;Generated with Cura_SteamEngine 5.10.1
T0
M190 S70
M104 S240
M109 S240
; = RRF Start G-code for OrcaSlicer =

M564 H0 S0                             ; Allow movement before homing
M190 S0 ; Wait for bed temp
M109 S0     ; Wait for hotend temp
M106 S2 S255                           ; Turn on part cooling fan

G28                                    ; Home all axes
G1 Z5 F6000                            ; Raise bed slightly from Z0
G1 X5 Y5 F6000                         ; Move to front-left corner
G92 E0                                 ; Reset extruder position

G29 S1                                 ; Load saved mesh bed leveling
M82 ;absolute extrusion mode
M83 ;relative extrusion mode
G1 F1500 E-0.5
;LAYER_COUNT:59
;LAYER:0
M107
M107 P1
M107 P2
M204 T5000
M566 X1800 Y1800
G0 F3000 X165.344 Y165.66 Z0.3
M204 P3500
M566 X1200 Y1200
;TYPE:SKIRT
G1 F1500 E0.5
G1 F3000 X166.192 Y164.832 E0.05913
G1 X167.13 Y163.977 E0.06332
G1 X168.129 Y163.134 E0.06521
G1 X169.163 Y162.325 E0.0655
G1 X170.146 Y161.612 E0.06058
G1 X171.18 Y160.916 E0.06218
G1 X172.299 Y160.222 E0.06569
G1 X173.24 Y159.682 E0.05413
G1 X174.535 Y158.998 E0.07307
G1 X175.344 Y158.634 E0.04426
G1 X175.908 Y158.469 E0.02932
G1 X217.5 Y149.256 E2.12533
G1 X218.82 Y149.097 E0.06633
G1 X219.549 Y149.061 E0.03641
G1 X220.424 Y149.081 E0.04367
G1 X221.493 Y149.175 E0.05354
G1 X222.298 Y149.31 E0.04072
G1 X223.019 Y149.466 E0.0368
G1 X224.131 Y149.823 E0.05827
G1 X225.361 Y150.311 E0.06602
G1 X226.191 Y150.771 E0.04734
G1 X226.965 Y151.258 E0.04562
G1 X227.766 Y151.842 E0.04946
G1 X228.406 Y152.383 E0.04181
G1 X229.046 Y153.001 E0.04439
G1 X229.612 Y153.62 E0.04185
G1 X229.948 Y154.03 E0.02645
G1 X230.65 Y155.039 E0.06132
G1 X231.169 Y155.925 E0.05123
G1 X231.41 Y156.399 E0.02653
G1 X231.851 Y157.457 E0.05719
G1 X232.106 Y158.229 E0.04056
G1 X232.352 Y159.199 E0.04993
G1 X232.503 Y160.027 E0.04199
G1 X232.648 Y161.331 E0.06546
G1 X232.65 Y162 E0.03338
G1 X232.618 Y162.898 E0.04483
G1 X232.488 Y163.905 E0.05066
G1 X232.299 Y164.885 E0.04979
G1 X232.019 Y165.963 E0.05557
G1 X220.851 Y205.395 E2.04465
G1 X220.609 Y206.19 E0.04146
G1 X220.286 Y206.937 E0.0406
G1 X219.327 Y208.524 E0.09251
G1 X218.604 Y209.627 E0.0658
G1 X217.925 Y210.58 E0.05838
G1 X217.228 Y211.495 E0.05739
G1 X216.389 Y212.519 E0.06605
G1 X215.601 Y213.41 E0.05934
G1 X214.671 Y214.39 E0.0674
G1 X213.823 Y215.218 E0.05913
G1 X212.885 Y216.072 E0.06329
G1 X211.887 Y216.914 E0.06514
G1 X210.958 Y217.645 E0.05898
G1 X209.965 Y218.37 E0.06134
G1 X208.837 Y219.133 E0.06794
G1 X207.816 Y219.768 E0.05999
G1 X206.653 Y220.435 E0.06689
G1 X205.139 Y221.225 E0.0852
G1 X204.358 Y221.515 E0.04156
G1 X203.639 Y221.69 E0.03692
G1 X163.033 Y230.678 E2.07488
G1 X162.09 Y230.853 E0.04785
G1 X161.353 Y230.942 E0.03704
G1 X160.396 Y230.982 E0.04779
G1 X159.599 Y230.969 E0.03977
G1 X158.522 Y230.875 E0.05394
G1 X157.717 Y230.74 E0.04072
G1 X156.965 Y230.577 E0.03839
G1 X155.639 Y230.156 E0.06941
G1 X154.755 Y229.777 E0.04799
G1 X154.073 Y229.423 E0.03834
G1 X153.103 Y228.832 E0.05667
G1 X152.241 Y228.201 E0.0533
G1 X151.65 Y227.712 E0.03827
G1 X151.174 Y227.272 E0.03234
G1 X150.423 Y226.453 E0.05544
G1 X150.047 Y225.995 E0.02956
G1 X149.606 Y225.399 E0.03699
G1 X148.896 Y224.217 E0.06879
G1 X148.662 Y223.763 E0.02548
G1 X148.245 Y222.789 E0.05286
G1 X147.913 Y221.833 E0.05049
G1 X147.748 Y221.249 E0.03028
G1 X147.541 Y220.203 E0.0532
G1 X147.369 Y218.813 E0.06988
G1 X147.365 Y218.056 E0.03777
G1 X147.389 Y217.258 E0.03983
G1 X147.543 Y216.024 E0.06204
G1 X147.764 Y214.958 E0.05431
G1 X147.997 Y214.083 E0.04518
G1 X159.164 Y174.656 E2.0444
G1 X159.458 Y173.689 E0.05042
G1 X159.798 Y172.994 E0.0386
G1 X160.62 Y171.632 E0.07937
G1 X161.411 Y170.427 E0.07191
G1 X162.09 Y169.47 E0.05854
G1 X162.787 Y168.555 E0.05739
G1 X163.626 Y167.531 E0.06605
G1 X164.414 Y166.64 E0.05934
G1 X165.344 Y165.66 E0.0674
M566 X1800 Y1800
G0 X165.624 Y165.946
M566 X1200 Y1200
G1 X166.461 Y165.128 E0.05839
G1 X167.388 Y164.283 E0.06258
G1 X168.376 Y163.449 E0.06451
G1 X169.398 Y162.649 E0.06475
G1 X170.369 Y161.944 E0.05987
G1 X171.391 Y161.256 E0.06146
G1 X172.498 Y160.569 E0.065
G1 X173.427 Y160.036 E0.05343
G1 X174.722 Y159.352 E0.07307
G1 X175.457 Y159.018 E0.04028
G1 X175.995 Y158.86 E0.02797
G1 X217.587 Y149.647 E2.12533
G1 X218.84 Y149.497 E0.06296
G1 X219.569 Y149.461 E0.03641
G1 X220.415 Y149.481 E0.04222
G1 X221.427 Y149.57 E0.05068
G1 X222.214 Y149.701 E0.0398
G1 X222.897 Y149.847 E0.03484
G1 X223.984 Y150.195 E0.05694
G1 X225.167 Y150.661 E0.06343
G1 X225.978 Y151.11 E0.04625
G1 X226.752 Y151.597 E0.04562
G1 X227.508 Y152.148 E0.04667
G1 X228.128 Y152.671 E0.04047
G1 X228.768 Y153.289 E0.04439
G1 X229.303 Y153.874 E0.03955
G1 X229.639 Y154.284 E0.02645
G1 X230.305 Y155.241 E0.05817
G1 X230.812 Y156.106 E0.05002
G1 X231.053 Y156.58 E0.02653
G1 X231.471 Y157.583 E0.05421
G1 X231.718 Y158.328 E0.03916
G1 X231.958 Y159.271 E0.04855
G1 X232.109 Y160.099 E0.04199
G1 X232.248 Y161.332 E0.0619
G1 X232.25 Y161.987 E0.03268
G1 X232.221 Y162.847 E0.04293
G1 X232.095 Y163.829 E0.04939
G1 X231.906 Y164.809 E0.04979
G1 X231.634 Y165.854 E0.05387
G1 X220.468 Y205.279 E2.04429
G1 X220.226 Y206.074 E0.04146
G1 X219.944 Y206.73 E0.03562
G1 X218.993 Y208.305 E0.09179
G1 X218.278 Y209.395 E0.06504
G1 X217.607 Y210.338 E0.05774
G1 X216.919 Y211.241 E0.05664
G1 X216.089 Y212.254 E0.06534
G1 X215.311 Y213.135 E0.05864
G1 X214.391 Y214.104 E0.06666
G1 X213.554 Y214.922 E0.05839
G1 X212.627 Y215.766 E0.06255
G1 X211.64 Y216.6 E0.06447
G1 X210.722 Y217.322 E0.05827
G1 X209.741 Y218.039 E0.06062
G1 X208.625 Y218.793 E0.06719
G1 X207.617 Y219.421 E0.05925
G1 X206.467 Y220.081 E0.06615
G1 X204.999 Y220.85 E0.08268
G1 X204.263 Y221.126 E0.03922
G1 X203.553 Y221.299 E0.03646
G1 X162.96 Y230.285 E2.07422
G1 X162.042 Y230.456 E0.04659
G1 X161.336 Y230.542 E0.03548
G1 X160.403 Y230.582 E0.04659
G1 X159.606 Y230.569 E0.03977
G1 X158.588 Y230.48 E0.05098
G1 X157.801 Y230.349 E0.0398
G1 X157.086 Y230.196 E0.03648
G1 X155.797 Y229.788 E0.06745
G1 X154.913 Y229.409 E0.04799
G1 X154.281 Y229.081 E0.03552
G1 X153.339 Y228.509 E0.05498
G1 X152.496 Y227.893 E0.05209
G1 X151.922 Y227.418 E0.03717
G1 X151.446 Y226.978 E0.03234
G1 X150.732 Y226.199 E0.05272
G1 X150.369 Y225.757 E0.02853
G1 X149.928 Y225.161 E0.03699
G1 X149.252 Y224.034 E0.06557
G1 X149.018 Y223.58 E0.02548
G1 X148.623 Y222.657 E0.05009
G1 X148.298 Y221.724 E0.04929
G1 X148.133 Y221.14 E0.03028
G1 X147.938 Y220.153 E0.05019
G1 X147.769 Y218.811 E0.06748
G1 X147.765 Y218.067 E0.03712
G1 X147.786 Y217.307 E0.03793
G1 X147.935 Y216.105 E0.06043
G1 X148.156 Y215.039 E0.05431
G1 X148.382 Y214.192 E0.04374
G1 X159.547 Y174.772 E2.04403
G1 X159.841 Y173.805 E0.05042
G1 X160.14 Y173.201 E0.03362
G1 X160.955 Y171.851 E0.07867
G1 X161.737 Y170.658 E0.07117
G1 X162.408 Y169.712 E0.05786
G1 X163.096 Y168.809 E0.05664
G1 X163.926 Y167.796 E0.06534
G1 X164.704 Y166.915 E0.05864
G1 X165.624 Y165.946 E0.06666
M566 X1800 Y1800
G0 X165.904 Y166.232
M566 X1200 Y1200
G1 X166.73 Y165.424 E0.05765
G1 X167.646 Y164.589 E0.06184
G1 X168.623 Y163.764 E0.0638
G1 X169.633 Y162.973 E0.064
G1 X170.592 Y162.276 E0.05915
G1 X171.602 Y161.596 E0.06075
G1 X172.697 Y160.916 E0.06431
G1 X173.614 Y160.39 E0.05274
G1 X174.909 Y159.706 E0.07307
G1 X175.57 Y159.402 E0.0363
G1 X176.082 Y159.251 E0.02663
G1 X217.674 Y150.038 E2.12533
G1 X218.86 Y149.897 E0.05959
G1 X219.589 Y149.861 E0.03641
G1 X220.405 Y149.881 E0.04072
G1 X221.361 Y149.965 E0.04788
G1 X222.148 Y150.096 E0.0398
G1 X222.775 Y150.228 E0.03197
G1 X223.862 Y150.576 E0.05694
G1 X224.973 Y151.011 E0.05953
G1 X225.765 Y151.449 E0.04515
G1 X226.517 Y151.921 E0.0443
G1 X227.25 Y152.454 E0.04522
G1 X227.85 Y152.959 E0.03913
G1 X228.49 Y153.577 E0.04439
G1 X228.994 Y154.128 E0.03725
G1 X229.33 Y154.538 E0.02645
G1 X229.96 Y155.444 E0.05505
G1 X230.455 Y156.287 E0.04877
G1 X230.696 Y156.761 E0.02653
G1 X231.091 Y157.709 E0.05124
G1 X231.33 Y158.427 E0.03775
G1 X231.564 Y159.343 E0.04717
G1 X231.715 Y160.171 E0.04199
G1 X231.848 Y161.333 E0.05835
G1 X231.85 Y161.974 E0.03198
G1 X231.824 Y162.796 E0.04103
G1 X231.702 Y163.753 E0.04813
G1 X231.513 Y164.733 E0.04979
G1 X231.249 Y165.745 E0.05218
G1 X220.085 Y205.164 E2.04397
G1 X219.858 Y205.918 E0.03929
G1 X219.602 Y206.523 E0.03277
G1 X218.658 Y208.086 E0.0911
G1 X217.952 Y209.163 E0.06425
G1 X217.289 Y210.096 E0.0571
G1 X216.61 Y210.987 E0.05589
G1 X215.789 Y211.989 E0.06463
G1 X215.021 Y212.86 E0.05793
G1 X214.111 Y213.818 E0.06592
G1 X213.285 Y214.626 E0.05765
G1 X212.369 Y215.461 E0.06184
G1 X211.393 Y216.286 E0.06376
G1 X210.486 Y216.999 E0.05756
G1 X209.517 Y217.708 E0.0599
G1 X208.413 Y218.454 E0.06647
G1 X207.418 Y219.074 E0.05849
G1 X206.281 Y219.727 E0.06541
G1 X204.859 Y220.475 E0.08016
G1 X204.123 Y220.751 E0.03922
G1 X203.467 Y220.908 E0.03365
G1 X162.887 Y229.892 E2.07357
G1 X161.993 Y230.059 E0.04537
G1 X161.318 Y230.142 E0.03393
G1 X160.41 Y230.182 E0.04534
G1 X159.613 Y230.169 E0.03977
G1 X158.654 Y230.085 E0.04803
G1 X157.867 Y229.954 E0.0398
G1 X157.206 Y229.814 E0.03371
G1 X155.955 Y229.42 E0.06543
G1 X155.071 Y229.041 E0.04799
G1 X154.488 Y228.739 E0.03276
G1 X153.575 Y228.186 E0.05325
G1 X152.751 Y227.585 E0.05088
G1 X152.194 Y227.124 E0.03607
G1 X151.718 Y226.684 E0.03234
G1 X151.041 Y225.945 E0.05
G1 X150.691 Y225.519 E0.02751
G1 X150.25 Y224.923 E0.03699
G1 X149.608 Y223.851 E0.06234
G1 X149.374 Y223.397 E0.02548
G1 X148.991 Y222.5 E0.04866
G1 X148.683 Y221.615 E0.04675
G1 X148.518 Y221.031 E0.03028
G1 X148.335 Y220.103 E0.04719
G1 X148.166 Y218.761 E0.06748
G1 X148.165 Y218.077 E0.03412
G1 X148.183 Y217.356 E0.03598
G1 X148.327 Y216.186 E0.05881
G1 X148.548 Y215.12 E0.05431
G1 X148.767 Y214.301 E0.0423
G1 X159.93 Y174.886 E2.04377
G1 X160.2 Y173.982 E0.04707
G1 X160.483 Y173.408 E0.03193
G1 X161.29 Y172.07 E0.07795
G1 X162.063 Y170.889 E0.07042
G1 X162.726 Y169.954 E0.05718
G1 X163.405 Y169.063 E0.05589
G1 X164.226 Y168.061 E0.06463
G1 X164.994 Y167.19 E0.05793
G1 X165.904 Y166.232 E0.06592
M566 X1800 Y1800
G1 F1500 E-0.5
;MESH:Body2
G0 F3000 X170.872 Y165.773
G0 X171.558 Y166.61
G0 X220.83 Y169.063
G0 X220.797 Y168.757
M566 X1200 Y1200
;TYPE:WALL-INNER
G1 F1500 E0.5
G1 F3000 X220.281 Y168.813 E0.02589
G1 X219.663 Y168.828 E0.03084
G1 X219.139 Y168.8 E0.02618
G1 X218.576 Y168.723 E0.02835
G1 X218.015 Y168.598 E0.02867
G1 X217.429 Y168.414 E0.03064
G1 X216.949 Y168.222 E0.02579
G1 X216.397 Y167.939 E0.03095
G1 X215.927 Y167.65 E0.02753
G1 X215.296 Y167.185 E0.03911
G1 X214.689 Y166.582 E0.04269
G1 X214.327 Y166.154 E0.02797
G1 X213.993 Y165.688 E0.0286
G1 X213.697 Y165.181 E0.02929
G1 X213.444 Y164.662 E0.02881
G1 X213.24 Y164.131 E0.02838
G1 X213.092 Y163.631 E0.02601
G1 X212.968 Y163.027 E0.03076
G1 X212.9 Y162.472 E0.0279
G1 X212.876 Y161.896 E0.02876
G1 X212.904 Y161.32 E0.02877
G1 X212.968 Y160.812 E0.02554
G1 X213.138 Y159.983 E0.04222
G1 X213.434 Y159.196 E0.04195
G1 X213.68 Y158.687 E0.0282
G1 X213.944 Y158.231 E0.02629
G1 X214.292 Y157.73 E0.03043
G1 X214.66 Y157.286 E0.02877
G1 X215.054 Y156.883 E0.02812
G1 X215.491 Y156.505 E0.02883
G1 X215.947 Y156.171 E0.0282
G1 X216.399 Y155.895 E0.02642
G1 X216.903 Y155.636 E0.02827
G1 X217.467 Y155.412 E0.03028
G1 X217.963 Y155.252 E0.026
G1 X218.783 Y155.067 E0.04194
G1 X219.582 Y155.009 E0.03997
G1 X220.172 Y155.016 E0.02944
G1 X220.735 Y155.072 E0.02823
G1 X221.293 Y155.175 E0.02831
G1 X221.827 Y155.315 E0.02754
G1 X222.369 Y155.506 E0.02867
G1 X222.917 Y155.754 E0.03001
G1 X223.424 Y156.041 E0.02907
G1 X223.88 Y156.35 E0.02748
G1 X224.321 Y156.702 E0.02815
G1 X224.918 Y157.269 E0.04108
G1 X225.412 Y157.898 E0.0399
G1 X225.716 Y158.365 E0.0278
G1 X226.009 Y158.912 E0.03096
G1 X226.229 Y159.411 E0.02721
G1 X226.412 Y159.943 E0.02807
G1 X226.549 Y160.489 E0.02808
G1 X226.651 Y161.09 E0.03041
G1 X226.691 Y161.62 E0.02652
G1 X226.691 Y162.225 E0.03018
G1 X226.627 Y162.997 E0.03865
G1 X226.434 Y163.804 E0.0414
G1 X226.245 Y164.379 E0.0302
G1 X226.025 Y164.894 E0.02794
G1 X225.781 Y165.362 E0.02633
G1 X225.453 Y165.877 E0.03046
G1 X225.14 Y166.293 E0.02597
G1 X224.719 Y166.762 E0.03144
G1 X224.306 Y167.147 E0.02817
G1 X223.859 Y167.505 E0.02857
G1 X223.384 Y167.817 E0.02835
G1 X222.886 Y168.093 E0.02841
G1 X222.371 Y168.329 E0.02826
G1 X221.624 Y168.597 E0.03959
G1 X220.797 Y168.757 E0.04202
M566 X1800 Y1800
G0 X220.83 Y169.063
G0 X164.928 Y223.532
G0 X163.972 Y224.232
G0 X162.923 Y224.764
G0 X161.295 Y225.27
G0 X161.261 Y224.962
M566 X1200 Y1200
G1 X160.709 Y225.022 E0.0277
G1 X160.14 Y225.04 E0.0284
G1 X159.571 Y225.008 E0.02843
G1 X159.02 Y224.936 E0.02772
G1 X158.424 Y224.799 E0.03051
G1 X157.885 Y224.633 E0.02814
G1 X157.369 Y224.423 E0.02779
G1 X156.868 Y224.168 E0.02805
G1 X156.149 Y223.73 E0.042
G1 X155.519 Y223.189 E0.04143
G1 X155.114 Y222.781 E0.02868
G1 X154.745 Y222.343 E0.02857
G1 X154.445 Y221.919 E0.02591
G1 X154.132 Y221.391 E0.03062
G1 X153.9 Y220.915 E0.02642
G1 X153.676 Y220.343 E0.03065
G1 X153.515 Y219.792 E0.02864
G1 X153.404 Y219.236 E0.02829
G1 X153.338 Y218.702 E0.02684
G1 X153.316 Y218.136 E0.02826
G1 X153.337 Y217.556 E0.02896
G1 X153.405 Y217.012 E0.02735
G1 X153.574 Y216.201 E0.04133
G1 X153.849 Y215.457 E0.03957
G1 X154.094 Y214.94 E0.02854
G1 X154.379 Y214.441 E0.02867
G1 X154.728 Y213.938 E0.03054
G1 X155.064 Y213.53 E0.02637
G1 X155.452 Y213.126 E0.02795
G1 X155.927 Y212.717 E0.03127
G1 X156.383 Y212.383 E0.0282
G1 X156.835 Y212.107 E0.02642
G1 X157.387 Y211.827 E0.03088
G1 X157.863 Y211.635 E0.02561
G1 X158.455 Y211.45 E0.03094
G1 X159.015 Y211.325 E0.02863
G1 X159.795 Y211.215 E0.0393
G1 X160.586 Y211.228 E0.03947
G1 X161.156 Y211.282 E0.02856
G1 X161.718 Y211.381 E0.02847
G1 X162.313 Y211.539 E0.03071
G1 X162.809 Y211.719 E0.02632
G1 X163.326 Y211.954 E0.02833
G1 X163.819 Y212.229 E0.02816
G1 X164.319 Y212.563 E0.03
G1 X164.759 Y212.911 E0.02799
G1 X165.36 Y213.489 E0.0416
G1 X165.871 Y214.143 E0.04141
G1 X166.151 Y214.571 E0.02552
G1 X166.446 Y215.122 E0.03118
G1 X166.654 Y215.594 E0.02573
G1 X166.854 Y216.18 E0.03089
G1 X166.992 Y216.73 E0.02829
G1 X167.08 Y217.242 E0.02592
G1 X167.132 Y217.877 E0.03179
G1 X167.127 Y218.433 E0.02774
G1 X167.052 Y219.261 E0.04148
G1 X166.863 Y220.038 E0.0399
G1 X166.699 Y220.542 E0.02644
G1 X166.461 Y221.1 E0.03027
G1 X166.19 Y221.62 E0.02925
G1 X165.889 Y222.089 E0.0278
G1 X165.577 Y222.505 E0.02594
G1 X165.189 Y222.936 E0.02893
G1 X164.741 Y223.363 E0.03088
G1 X164.337 Y223.683 E0.02571
G1 X163.824 Y224.023 E0.0307
G1 X163.364 Y224.283 E0.02636
G1 X162.834 Y224.527 E0.02911
G1 X162.059 Y224.809 E0.04115
G1 X161.261 Y224.962 E0.04054
M566 X1800 Y1800
G0 X161.75 Y225.799
M566 X1200 Y1200
G1 X202.975 Y216.662 E2.10663
G1 X203.866 Y216.209 E0.04987
G1 X204.796 Y215.695 E0.05301
G1 X205.714 Y215.147 E0.05334
G1 X206.603 Y214.567 E0.05296
G1 X207.477 Y213.951 E0.05335
G1 X208.325 Y213.308 E0.05309
G1 X209.148 Y212.637 E0.05298
G1 X209.952 Y211.931 E0.05338
G1 X210.728 Y211.202 E0.05312
G1 X211.477 Y210.442 E0.05324
G1 X212.194 Y209.661 E0.05289
G1 X212.888 Y208.85 E0.05325
G1 X213.551 Y208.015 E0.05319
G1 X214.182 Y207.156 E0.05318
G1 X214.782 Y206.278 E0.05305
G1 X215.35 Y205.378 E0.0531
G1 X215.85 Y204.508 E0.05006
G1 X227.358 Y163.872 E2.10707
G1 X227.481 Y163.32 E0.02821
G1 X227.56 Y162.76 E0.02822
G1 X227.604 Y162.217 E0.02718
G1 X227.601 Y161.588 E0.03138
G1 X227.557 Y161.054 E0.02673
G1 X227.474 Y160.471 E0.02938
G1 X227.343 Y159.908 E0.02884
G1 X227.182 Y159.375 E0.02778
G1 X226.991 Y158.871 E0.02689
G1 X226.746 Y158.353 E0.02859
G1 X226.486 Y157.883 E0.0268
G1 X226.176 Y157.409 E0.02826
G1 X225.847 Y156.972 E0.02729
G1 X225.462 Y156.539 E0.02891
G1 X225.073 Y156.158 E0.02717
G1 X224.658 Y155.799 E0.02738
G1 X224.128 Y155.415 E0.03265
G1 X223.666 Y155.127 E0.02716
G1 X223.151 Y154.861 E0.02892
G1 X222.654 Y154.642 E0.0271
